dist/img/icon-reaction-s1.svg

<svg width="20" height="20" viewBox="0 0 20 20" fill="none" xmlns="http://www.w3.org/2000/svg">
<g clip-path="url(#clip0_4689_25604)">
<path d="M19.1373 13.5968C19.5471 13.074 19.7437 12.5136 19.7186 11.9364C19.6935 11.3007 19.4091 10.803 19.1749 10.4977C19.4468 9.82016 19.5513 8.75366 18.6438 7.92555C17.9788 7.31911 16.8495 7.04726 15.2853 7.12254C14.1854 7.17273 13.2653 7.37767 13.2276 7.38603H13.2234C13.0143 7.42367 12.7926 7.46968 12.5668 7.51987C12.5501 7.2522 12.5961 6.5872 13.0896 5.08992C13.6751 3.30824 13.6417 1.94479 12.9809 1.03304C12.2866 0.0752824 11.1783 0 10.852 0C10.5384 0 10.2498 0.129653 10.0448 0.368047C9.5806 0.90757 9.63497 1.90297 9.69352 2.36303C9.14145 3.84358 7.59398 7.47386 6.28491 8.48181C6.25981 8.49854 6.2389 8.51945 6.21799 8.54036C5.83321 8.94605 5.57391 9.38519 5.39825 9.76997C5.15149 9.63614 4.87127 9.56085 4.57014 9.56085H2.01891C1.05697 9.56085 0.279053 10.343 0.279053 11.3007V18.097C0.279053 19.059 1.06115 19.8369 2.01891 19.8369H4.57014C4.94237 19.8369 5.28951 19.7198 5.57391 19.519L6.55676 19.6361C6.70732 19.657 9.38403 19.9958 12.1318 19.9414C12.6295 19.9791 13.098 20 13.5329 20C14.2816 20 14.934 19.9414 15.4777 19.8243C16.7575 19.5525 17.6316 19.0088 18.075 18.21C18.4137 17.5993 18.4137 16.9929 18.3594 16.6081C19.1916 15.8553 19.338 15.023 19.3087 14.4375C19.292 14.0987 19.2167 13.8101 19.1373 13.5968ZM2.01891 18.7077C1.68014 18.7077 1.40829 18.4316 1.40829 18.097V11.2965C1.40829 10.9578 1.68432 10.6859 2.01891 10.6859H4.57014C4.90891 10.6859 5.18077 10.9619 5.18077 11.2965V18.0928C5.18077 18.4316 4.90473 18.7035 4.57014 18.7035H2.01891V18.7077ZM18.0666 13.1075C17.8909 13.2915 17.8575 13.5717 17.9913 13.7892C17.9913 13.7934 18.1628 14.0862 18.1837 14.4877C18.213 15.0355 17.9495 15.5207 17.3974 15.9348C17.2008 16.0853 17.1214 16.3446 17.205 16.5788C17.205 16.583 17.3849 17.1351 17.0921 17.6579C16.8119 18.1598 16.1887 18.5194 15.2435 18.7202C14.4865 18.8833 13.4576 18.9126 12.1946 18.8122C12.1778 18.8122 12.1569 18.8122 12.136 18.8122C9.44676 18.8708 6.72824 18.5194 6.69896 18.5153H6.69478L6.27236 18.4651C6.29745 18.348 6.31 18.2225 6.31 18.097V11.2965C6.31 11.1167 6.28073 10.941 6.23054 10.7779C6.30582 10.4977 6.51494 9.87453 7.00845 9.34337C8.88633 7.85445 10.7224 2.83145 10.8018 2.61397C10.8353 2.52614 10.8437 2.42995 10.8269 2.33375C10.7558 1.86533 10.7809 1.29235 10.8813 1.12087C11.103 1.12505 11.7011 1.18779 12.0607 1.68549C12.4873 2.2752 12.4706 3.32915 12.0105 4.72606C11.3079 6.85487 11.2494 7.97574 11.8056 8.46926C12.0816 8.71602 12.4497 8.72857 12.7174 8.63237C12.9725 8.57382 13.2151 8.52363 13.4451 8.48599C13.4618 8.48181 13.4827 8.47762 13.4995 8.47344C14.7834 8.19322 17.0837 8.02175 17.8826 8.74948C18.5601 9.36846 18.0791 10.1882 18.0248 10.276C17.87 10.5102 17.916 10.8156 18.1251 11.0038C18.1293 11.0079 18.5685 11.422 18.5894 11.9783C18.6061 12.3505 18.4305 12.7311 18.0666 13.1075Z" fill="#959EA8"/>
</g>
<defs>
<clipPath id="clip0_4689_25604">
<rect width="20" height="20" fill="white"/>
</clipPath>
</defs>
</svg>

<svg xmlns="http://www.w3.org/2000/svg" width="20" height="20" fill="none" viewBox="0 0 20 20"><g clip-path="url(#a)"><path fill="#959EA8" d="M19.137 13.597c.41-.523.607-1.083.582-1.66-.026-.636-.31-1.134-.544-1.44.272-.677.376-1.743-.531-2.571-.665-.607-1.794-.879-3.359-.803-1.1.05-2.02.255-2.057.263h-.005q-.315.058-.656.134c-.017-.268.03-.933.523-2.43.585-1.782.552-3.145-.11-4.057C12.288.075 11.179 0 10.853 0c-.314 0-.602.13-.807.368-.464.54-.41 1.535-.351 1.995-.553 1.48-2.1 5.11-3.41 6.119q-.035.026-.066.058a4.5 4.5 0 0 0-.82 1.23 1.7 1.7 0 0 0-.828-.21H2.02c-.962 0-1.74.783-1.74 1.74v6.797c0 .962.782 1.74 1.74 1.74h2.55c.372 0 .72-.117 1.004-.318l.983.117c.15.021 2.827.36 5.575.305q.748.058 1.4.059c.75 0 1.402-.059 1.946-.176 1.28-.272 2.154-.815 2.597-1.614.339-.61.339-1.217.284-1.602.833-.753.979-1.585.95-2.17a2.8 2.8 0 0 0-.172-.841M2.02 18.707a.61.61 0 0 1-.61-.61v-6.8a.61.61 0 0 1 .61-.611h2.55a.61.61 0 0 1 .61.61v6.797a.61.61 0 0 1-.61.61H2.02zm16.048-5.6a.56.56 0 0 0-.076.682c0 .004.172.297.193.699q.042.824-.787 1.447a.57.57 0 0 0-.192.644c0 .004.18.556-.113 1.079-.28.502-.903.861-1.848 1.062-.758.163-1.786.193-3.05.092h-.058c-2.69.059-5.408-.293-5.437-.297h-.004l-.423-.05q.038-.177.038-.368v-6.8c0-.18-.03-.356-.08-.52.076-.28.285-.902.778-1.434 1.878-1.489 3.714-6.512 3.794-6.729a.53.53 0 0 0 .025-.28c-.071-.469-.046-1.042.054-1.213.222.004.82.067 1.18.564.426.59.41 1.644-.05 3.041-.703 2.129-.762 3.25-.205 3.743.276.247.644.26.911.163q.383-.088.728-.146c.017-.004.038-.008.054-.013 1.284-.28 3.585-.451 4.384.276.677.62.196 1.44.142 1.527a.56.56 0 0 0 .1.728c.004.004.444.418.464.974.017.373-.159.753-.522 1.13"/></g><defs><clipPath id="a"><path fill="#fff" d="M0 0h20v20H0z"/></clipPath></defs></svg>
